X:1
T: Miss Jean Budge
C:
R:Strathspey
Q: 128
K:A
M:4/4
L:1/16
|:c2d2|e3c A3c E3A c3A|F3D F3A d4 d4|G3E G3B d3B G3B|A3G A3B c4 c4|
e3c A3c E3A c3A|F3D F3A d4 d4|G3E G3B d3B G3B|A4 c4 A4:|
|:e2|a3g f3e c3e A3e|d3c d3e f4 f4|e3^d e3f g3e f3g|a3e c3e A4 A4|
e3c A3c e4 a4|f3a f3d B4 B4|c3e d3G E3G B3G|A4 c4 A4:|
